SVG_Azure_Grouped/Data/SQL Database Dynamic Data Masking.svg

<?xml version="1.0" encoding="UTF-8" standalone="no"?>
<!-- Generated by Microsoft Visio, SVG Export SQL Database Dynamic Data Masking.svg Page-1 -->

<svg
   xmlns:dc="http://purl.org/dc/elements/1.1/"
   xmlns:cc="http://creativecommons.org/ns#"
   xmlns:rdf="http://www.w3.org/1999/02/22-rdf-syntax-ns#"
   xmlns:svg="http://www.w3.org/2000/svg"
   xmlns="http://www.w3.org/2000/svg"
   xmlns:sodipodi="http://sodipodi.sourceforge.net/DTD/sodipodi-0.dtd"
   xmlns:inkscape="http://www.inkscape.org/namespaces/inkscape"
   width="0.70868421in"
   height="0.78735173in"
   viewBox="0 0 51.024945 56.689702"
   xml:space="preserve"
   class="st8"
   version="1.1"
   id="svg59"
   sodipodi:docname="SQL Database Dynamic Data Masking.svg"
   style="font-size:12px;overflow:visible;color-interpolation-filters:sRGB;fill:none;fill-rule:evenodd;stroke-linecap:square;stroke-miterlimit:3"
   inkscape:version="0.92.5 (2060ec1f9f, 2020-04-08)"><metadata
   id="metadata65"><rdf:RDF><cc:Work
       rdf:about=""><dc:format>image/svg+xml</dc:format><dc:type
         rdf:resource="http://purl.org/dc/dcmitype/StillImage" /></cc:Work></rdf:RDF></metadata><defs
   id="defs63" /><sodipodi:namedview
   pagecolor="#ffffff"
   bordercolor="#666666"
   borderopacity="1"
   objecttolerance="10"
   gridtolerance="10"
   guidetolerance="10"
   inkscape:pageopacity="0"
   inkscape:pageshadow="2"
   inkscape:window-width="640"
   inkscape:window-height="480"
   id="namedview61"
   showgrid="false"
   inkscape:zoom="1.4768313"
   inkscape:cx="34.015239"
   inkscape:cy="34.544172"
   inkscape:window-x="0"
   inkscape:window-y="0"
   inkscape:window-maximized="0"
   inkscape:current-layer="svg59" />
	<style
   type="text/css"
   id="style2">
	<![CDATA[
		.st1 {fill:#3999c6;stroke:none;stroke-linecap:butt;stroke-width:29.1429}
		.st2 {fill:#5ab4d9;stroke:none;stroke-linecap:butt;stroke-width:29.1429}
		.st3 {fill:#ffffff;stroke:none;stroke-linecap:butt;stroke-width:29.1429}
		.st4 {fill:#bebec0;stroke:none;stroke-linecap:butt;stroke-width:29.1429}
		.st5 {fill:#ffffff;fill-opacity:0.25;stroke:none;stroke-linecap:butt;stroke-width:29.1429}
		.st6 {fill:#b8d433;stroke:none;stroke-linecap:butt;stroke-width:29.1429}
		.st7 {fill:#111111;fill-opacity:0.25;stroke:none;stroke-linecap:butt;stroke-width:29.1429}
		.st8 {fill:none;fill-rule:evenodd;font-size:12px;overflow:visible;stroke-linecap:square;stroke-miterlimit:3}
	]]>
	</style>

	<g
   id="g57"
   transform="translate(-29.143605,-29.1446)">
		<title
   id="title4">Page-1</title>
		<g
   id="group19140-1"
   transform="translate(29.1429,-34.0157)">
			<title
   id="title6">SQL Database Dynamic Data Masking.19140</title>
			<g
   id="group19141-2">
				<title
   id="title8">Sheet.19141</title>
				<g
   id="shape19142-3"
   transform="translate(0,-4.25197)">
					<title
   id="title10">Sheet.19142</title>
					<path
   d="m 0,74.5 v 38.26 c 0,3.97 8.89,7.09 20.07,7.09 V 74.5 Z"
   class="st1"
   id="path12"
   inkscape:connector-curvature="0"
   style="fill:#3999c6;stroke:none;stroke-width:29.14290047;stroke-linecap:butt" />
				</g>
				<g
   id="shape19143-5"
   transform="translate(19.7788,-3.9685)">
					<title
   id="title15">Sheet.19143</title>
					<path
   d="m 0,119.85 c 11.47,0 20.35,-3.12 20.35,-7.09 V 74.21 H 0 Z"
   class="st2"
   id="path17"
   inkscape:connector-curvature="0"
   style="fill:#5ab4d9;stroke:none;stroke-width:29.14290047;stroke-linecap:butt" />
				</g>
				<g
   id="shape19144-7"
   transform="translate(0.28665,-42.5197)">
					<title
   id="title20">Sheet.19144</title>
					<path
   d="m 40.13,112.76 c 0,3.97 -8.89,7.09 -20.06,7.09 C 8.89,119.85 0,116.73 0,112.76 c 0,-3.96 8.89,-7.08 20.07,-7.08 11.17,0 20.06,3.12 20.06,7.08 z"
   class="st3"
   id="path22"
   inkscape:connector-curvature="0"
   style="fill:#ffffff;stroke:none;stroke-width:29.14290047;stroke-linecap:butt" />
				</g>
				<g
   id="shape19145-9"
   transform="translate(4.29974,-45.0709)">
					<title
   id="title25">Sheet.19145</title>
					<path
   d="m 31.82,115.03 c 0,2.55 -7.17,4.82 -16.05,4.82 -8.89,0 -15.77,-2.27 -15.77,-4.82 0,-2.55 7.17,-4.82 16.05,-4.82 8.89,0 15.77,2.27 15.77,4.82 z"
   class="st4"
   id="path27"
   inkscape:connector-curvature="0"
   style="fill:#bebec0;stroke:none;stroke-width:29.14290047;stroke-linecap:butt" />
				</g>
				<g
   id="shape19146-11"
   transform="translate(4.29974,-47.0551)">
					<title
   id="title30">Sheet.19146</title>
					<path
   d="m 28.66,119.85 c 2.01,-0.85 3.44,-1.7 3.44,-2.83 0,-2.55 -7.16,-4.82 -16.05,-4.82 -8.88,0 -16.05,2.27 -16.05,4.82 0,1.13 1.15,1.98 3.44,2.83 2.87,-1.13 7.45,-1.98 12.61,-1.98 4.88,0.28 9.46,0.85 12.61,1.98 z"
   class="st5"
   id="path32"
   inkscape:connector-curvature="0"
   style="fill:#ffffff;fill-opacity:0.25;stroke:none;stroke-width:29.14290047;stroke-linecap:butt" />
				</g>
				<g
   id="shape19147-13"
   transform="translate(18.3456)">
					<title
   id="title35">Sheet.19147</title>
					<path
   d="m 32.68,94.62 c 0,0 -4.02,-2.26 -16.34,-2.26 C 4.01,92.36 0,94.62 0,94.62 l 13.19,13.04 0.57,11.34 c 0,0 1.15,0.85 2.87,0.85 1.43,0 2.86,-0.85 2.86,-0.85 l 0.58,-11.34 z"
   class="st4"
   id="path37"
   inkscape:connector-curvature="0"
   style="fill:#bebec0;stroke:none;stroke-width:29.14290047;stroke-linecap:butt" />
				</g>
				<g
   id="shape19148-15"
   transform="translate(34.6846)">
					<title
   id="title40">Sheet.19148</title>
					<path
   d="m 16.34,94.62 c 0,0 -4.01,-2.26 -16.34,-2.26 v 27.49 c 1.43,0 2.87,-0.85 2.87,-0.85 l 0.57,-11.34 z"
   class="st5"
   id="path42"
   inkscape:connector-curvature="0"
   style="fill:#ffffff;fill-opacity:0.25;stroke:none;stroke-width:29.14290047;stroke-linecap:butt" />
				</g>
				<g
   id="shape19149-17"
   transform="translate(0,-26.0787)">
					<title
   id="title45">Sheet.19149</title>
					<path
   d="M 0,106.81 19.49,89.24 c 4.59,0 8.89,0.28 12.9,1.41 L 0,119.85 Z"
   class="st6"
   id="path47"
   inkscape:connector-curvature="0"
   style="fill:#b8d433;stroke:none;stroke-width:29.14290047;stroke-linecap:butt" />
				</g>
				<g
   id="shape19150-19"
   transform="translate(0,-24.9449)">
					<title
   id="title50">Sheet.19150</title>
					<path
   d="m 0,119.85 v -1.13 l 32.39,-29.2 0.86,0.28 z"
   class="st7"
   id="path52"
   inkscape:connector-curvature="0"
   style="fill:#111111;fill-opacity:0.25;stroke:none;stroke-width:29.14290047;stroke-linecap:butt" />
				</g>
			</g>
		</g>
	</g>
</svg>

<?xml version="1.0" encoding="UTF-8" standalone="no"?>
<!DOCTYPE svg PUBLIC "-//W3C//DTD SVG 1.1//EN" "http://www.w3.org/Graphics/SVG/1.1/DTD/svg11.dtd">
<!-- Generated by Microsoft Visio, SVG Export SQL Database Dynamic Data Masking.svg Page-1 -->
<svg xmlns="http://www.w3.org/2000/svg" xmlns:xlink="http://www.w3.org/1999/xlink" xmlns:ev="http://www.w3.org/2001/xml-events"
		width="1.51819in" height="1.6646in" viewBox="0 0 109.309 119.852" xml:space="preserve" color-interpolation-filters="sRGB"
		class="st8">
	<style type="text/css">
	<![CDATA[
		.st1 {fill:#3999c6;stroke:none;stroke-linecap:butt;stroke-width:29.1429}
		.st2 {fill:#5ab4d9;stroke:none;stroke-linecap:butt;stroke-width:29.1429}
		.st3 {fill:#ffffff;stroke:none;stroke-linecap:butt;stroke-width:29.1429}
		.st4 {fill:#bebec0;stroke:none;stroke-linecap:butt;stroke-width:29.1429}
		.st5 {fill:#ffffff;fill-opacity:0.25;stroke:none;stroke-linecap:butt;stroke-width:29.1429}
		.st6 {fill:#b8d433;stroke:none;stroke-linecap:butt;stroke-width:29.1429}
		.st7 {fill:#111111;fill-opacity:0.25;stroke:none;stroke-linecap:butt;stroke-width:29.1429}
		.st8 {fill:none;fill-rule:evenodd;font-size:12px;overflow:visible;stroke-linecap:square;stroke-miterlimit:3}
	]]>
	</style>

	<g>
		<title>Page-1</title>
		<g id="group18704-1" transform="translate(29.1429,-34.0157)">
			<title>SQL Database Dynamic Data Masking.18704</title>
			<g id="group18705-2">
				<title>Sheet.18705</title>
				<g id="shape18706-3" transform="translate(2.57794E-13,-4.25197)">
					<title>Sheet.18706</title>
					<path d="M0 74.5 L0 112.76 C0 116.73 8.89 119.85 20.07 119.85 L20.07 74.5 L0 74.5 Z" class="st1"/>
				</g>
				<g id="shape18707-5" transform="translate(19.7788,-3.9685)">
					<title>Sheet.18707</title>
					<path d="M0 119.85 C11.47 119.85 20.35 116.73 20.35 112.76 L20.35 74.21 L0 74.21 L0 119.85 Z" class="st2"/>
				</g>
				<g id="shape18708-7" transform="translate(0.28665,-42.5197)">
					<title>Sheet.18708</title>
					<path d="M40.13 112.76 C40.13 116.73 31.24 119.85 20.07 119.85 C8.89 119.85 0 116.73 0 112.76 C0 108.8 8.89 105.68
								 20.07 105.68 C31.24 105.68 40.13 108.8 40.13 112.76 Z" class="st3"/>
				</g>
				<g id="shape18709-9" transform="translate(4.29974,-45.0709)">
					<title>Sheet.18709</title>
					<path d="M31.82 115.03 C31.82 117.58 24.65 119.85 15.77 119.85 C6.88 119.85 0 117.58 0 115.03 C0 112.48 7.17
								 110.21 16.05 110.21 C24.94 110.21 31.82 112.48 31.82 115.03 Z" class="st4"/>
				</g>
				<g id="shape18710-11" transform="translate(4.29974,-47.0551)">
					<title>Sheet.18710</title>
					<path d="M28.66 119.85 C30.67 119 32.1 118.15 32.1 117.02 C32.1 114.47 24.94 112.2 16.05 112.2 C7.17 112.2 0
								 114.47 0 117.02 C0 118.15 1.15 119 3.44 119.85 C6.31 118.72 10.89 117.87 16.05 117.87 C20.93 118.15
								 25.51 118.72 28.66 119.85 Z" class="st5"/>
				</g>
				<g id="shape18711-13" transform="translate(18.3456,0)">
					<title>Sheet.18711</title>
					<path d="M32.68 94.62 C32.68 94.62 28.66 92.36 16.34 92.36 C4.01 92.36 0 94.62 0 94.62 L13.19 107.66 L13.76 119
								 C13.76 119 14.91 119.85 16.63 119.85 C18.06 119.85 19.49 119 19.49 119 L20.07 107.66 L32.68 94.62
								 Z" class="st4"/>
				</g>
				<g id="shape18712-15" transform="translate(34.6846,0)">
					<title>Sheet.18712</title>
					<path d="M16.34 94.62 C16.34 94.62 12.33 92.36 0 92.36 L0 119.85 C1.43 119.85 2.87 119 2.87 119 L3.44 107.66
								 L16.34 94.62 Z" class="st5"/>
				</g>
				<g id="shape18713-17" transform="translate(0,-26.0787)">
					<title>Sheet.18713</title>
					<path d="M0 106.81 L19.49 89.24 C24.08 89.24 28.38 89.52 32.39 90.65 L0 119.85 L0 106.81 Z" class="st6"/>
				</g>
				<g id="shape18714-19" transform="translate(-2.51799E-13,-24.9449)">
					<title>Sheet.18714</title>
					<path d="M0 119.85 L0 118.72 L32.39 89.52 L33.25 89.8 L0 119.85 Z" class="st7"/>
				</g>
			</g>
		</g>
	</g>
</svg>
